packages/core/src/svgs/zrx.svg

<svg width="24" height="24" viewBox="0 0 24 24" fill="none" xmlns="http://www.w3.org/2000/svg">
<g clip-path="url(#clip0_31_21261)">
<path d="M0 0H24V24H0V0Z" fill="url(#paint0_linear_31_21261)"/>
<path d="M11.1877 18.8011L11.6934 18.8569H12.3294L12.4108 18.838L12.5381 18.8273C12.7085 18.8159 12.8782 18.7966 13.0468 18.7694C14.7191 18.508 16.0914 17.7284 17.2147 16.4629C17.252 16.4132 17.2584 16.3819 17.2147 16.3257L15.7794 14.4186L15.7237 14.356L15.6611 14.4559C15.2309 15.0906 14.6443 15.6037 13.958 15.9456C13.8954 15.9829 13.8581 15.9829 13.7955 15.9207L13.1094 15.2479L12.6915 14.8424L8.56738 17.9217C8.57681 17.929 8.58367 17.9346 8.58881 17.9397C8.59781 17.9483 8.60338 17.9526 8.6111 17.9526C9.40415 18.4058 10.2805 18.6944 11.1877 18.8011ZM12.6478 5.17986L12.2981 5.14258H11.7058C11.6951 5.14472 11.6857 5.14729 11.6758 5.15029C11.6565 5.15586 11.6372 5.16144 11.612 5.16144C11.522 5.17172 11.4307 5.18029 11.3394 5.18844C11.1594 5.20515 10.979 5.22186 10.8011 5.25486C9.43656 5.49626 8.17829 6.14864 7.19467 7.12472C7.07338 7.24172 6.95895 7.36601 6.8411 7.49458L6.73952 7.60515L8.28024 9.64944L8.34281 9.55601C8.77754 8.91103 9.3734 8.39096 10.0712 8.04744C10.127 8.01658 10.1647 8.02258 10.2144 8.06629C10.4319 8.2865 10.6521 8.50409 10.8748 8.71901L11.0942 8.93286L11.2562 9.08244L15.449 6.08372C15.4301 6.06529 15.4177 6.05286 15.4052 6.05286C14.56 5.56602 13.6192 5.26818 12.6478 5.17986ZM9.17252 12.673L6.05338 8.59001C5.22324 10.0986 4.94252 11.6817 5.28581 13.3587C5.59046 14.8865 6.40954 16.2638 7.60652 17.2609L9.64052 15.7339L9.62167 15.7026L9.55952 15.6589C8.91386 15.2253 8.39325 14.6299 8.04967 13.9321C8.01838 13.8764 8.02481 13.8451 8.06852 13.8014L8.5361 13.3214L9.17252 12.673ZM15.4678 10.7217L14.8935 11.314V11.3204L17.963 15.3721C18.7551 13.9782 19.0329 12.3505 18.7479 10.7727C18.4629 9.19495 17.6332 7.76727 16.4034 6.73858L14.357 8.27201L14.4384 8.33415C15.0931 8.77071 15.6205 9.37302 15.9667 10.0797C15.998 10.1354 15.998 10.1796 15.9478 10.2233L15.4678 10.7217Z" fill="white"/>
</g>
<defs>
<linearGradient id="paint0_linear_31_21261" x1="4.46486" y1="4.16229" x2="29.2059" y2="32.5787" gradientUnits="userSpaceOnUse">
<stop stop-color="#1A1E21"/>
<stop offset="1" stop-color="#06060A"/>
</linearGradient>
<clipPath id="clip0_31_21261">
<rect width="24" height="24" fill="white"/>
</clipPath>
</defs>
</svg>

<svg xmlns="http://www.w3.org/2000/svg" width="24" height="24" fill="none" viewBox="0 0 24 24"><g clip-path="url(#a)"><path fill="url(#b)" d="M0 0h24v24H0z"/><path fill="#fff" d="m11.188 18.801.505.056h.636l.082-.019.127-.01q.255-.017.509-.059c1.672-.261 3.044-1.04 4.168-2.306.037-.05.043-.081 0-.137l-1.436-1.907-.055-.063-.063.1a4.46 4.46 0 0 1-1.703 1.49c-.063.037-.1.037-.162-.025l-.687-.673-.418-.406-4.124 3.08.022.018q.012.012.022.013c.793.453 1.67.741 2.577.848m1.46-13.621-.35-.037h-.592l-.03.007q-.028.01-.064.011-.135.016-.273.027c-.18.017-.36.034-.538.067a6.8 6.8 0 0 0-3.606 1.87 8 8 0 0 0-.354.37l-.101.11L8.28 9.65l.063-.093a4.46 4.46 0 0 1 1.728-1.509c.056-.03.094-.024.143.02q.327.33.66.652l.22.214.162.15 4.193-3q-.027-.028-.044-.03a6.75 6.75 0 0 0-2.757-.873m-3.475 7.493L6.053 8.59c-.83 1.509-1.11 3.092-.767 4.769a6.8 6.8 0 0 0 2.32 3.902l2.035-1.527-.02-.031-.061-.044a4.45 4.45 0 0 1-1.51-1.727c-.032-.056-.025-.087.019-.13l.467-.48zm6.295-1.951-.575.592v.006l3.07 4.052a6.846 6.846 0 0 0-1.56-8.633l-2.046 1.533.081.062a4.45 4.45 0 0 1 1.529 1.746c.031.055.031.1-.02.143z"/></g><defs><linearGradient id="b" x1="4.465" x2="29.206" y1="4.162" y2="32.579" gradientUnits="userSpaceOnUse"><stop stop-color="#1A1E21"/><stop offset="1" stop-color="#06060A"/></linearGradient><clipPath id="a"><path fill="#fff" d="M0 0h24v24H0z"/></clipPath></defs></svg>
